X: 201
T: 1. Les Ages
T: les Ages
B: Robert Landrin "Potpourri fran\,cois des contre-danse ancienne tel quil se danse chez la Reine ..." 1760 p.20 #1 dance 07 #1
S: http://memory.loc.gov/cgi-bin/query/D?musdibib:2:./temp/~ammem_EbRS:
Z: 2014 John Chambers <jc:trillian.mit.edu>
M: 2/2
L: 1/8
K: G
% - - - - - - - - - - - - - - - - - - - - - - - - -
!segno!g4 |\
G4 GABc | d4 B2B2 | {d}c2Bc A2d2 | B2G2 g4 |\
G4 GABc | d4 B2B2 | {d}c2Bc A2d2 | HG4 |]
[| "1.F."B2B2 |\
A2GA B2B2 | A2D2 GFGA | BcBA GABc | d4 B2B2 |\
{B}A2GA B2B2 | A2D2 GFGA | BcBA GABc | d4 !segno!y |]
[| "1.F."gfga |\
b2a2 g2f2 | e4 fefg | a2g2 f2e2 | ^d2B2 efge |\
f2B2 efge | f2B2 efga | b2a2 !+!f3e | e4 !segno!y|]
% - - - - - - - - - - - - - - - - - - - - - - - - -

%%sep 1 1 500
%%sep 1 1 500
